Yaru++/apps/scalable/github.svg

<svg enable-background="new" height="256" viewBox="0 0 256 256" width="256" xmlns="http://www.w3.org/2000/svg" xmlns:xlink="http://www.w3.org/1999/xlink">
  <filter id="filter11191" color-interpolation-filters="sRGB" height="1.024" width="1.024" x="-.01" y="-.01">
    <feGaussianBlur stdDeviation="1.12"/>
  </filter>
  <filter id="filter11210" color-interpolation-filters="sRGB" height="1.096" width="1.096" x="-.05" y="-.05">
    <feGaussianBlur stdDeviation="4.48"/>
  </filter>
  <circle cx="128.752" cy="127.248" filter="url(#filter11210)" opacity=".1" r="112"/>
  <circle cx="128.752" cy="125.248" filter="url(#filter11191)" opacity=".1" r="112"/>
  <circle cx="128.752" cy="123.248" opacity=".1" r="114"/>
  <rect fill="#d5d3cf" height="212.8" rx="104.533" width="209.067" x="24.18" y="19.55"/>
  <path d="m240.752 123.248a112 112 0 0 1 -111.99997 111.99999 112 112 0 0 1 -112.000031-111.99999 112 112 0 0 1 112.000031-112.000004 112 112 0 0 1 111.99997 112.000004z" fill="#3d3846"/>
  <path d="m128.752 11.248007a112 112 0 0 0 -112 111.999993 112 112 0 0 0 .04102 1.16992 112 112 0 0 1 111.95898-111.169913 112 112 0 0 1 111.95898 110.830073 112 112 0 0 0 .041-.83008 112 112 0 0 0 -112-111.999993z" fill="#fff" opacity=".3"/>
  <g enable-background="new" fill="#fff" transform="matrix(1.6692058 0 0 -1.6692058 159.66481 -41.347771)">
    <path d="m-39.852624-141.65497c.788325.0154 1.434533-.42529 1.434533-.96766.01868-.54679-.616957-.99991-1.405281-1.00979-.792718-.0187-1.435112.42617-1.443894.96416 0 .55227.623029.99902 1.414642 1.01329z"/>
    <path d="m-34.665606-141.00673c.66083.0224 1.209048-.28129 1.296461-.75588.09442-.5325-.452784-1.0814-1.235617-1.22743-.769654-.14163-1.483089.18916-1.580794.71727-.09553.54678.461279 1.09516 1.230939 1.23679.09799.017.194607.026.289011.0292z"/>
    <path d="m-45.485449-140.77739c.179016-.002.367843-.0312.556964-.0901.7488-.22619 1.239416-.83036 1.083506-1.35848-.161396-.51929-.904691-.75309-1.655681-.53239-.749897.22726-1.240872.83365-1.089357 1.35848.116931.3928.567523.62797 1.104568.62249z"/>
    <path d="m-50.31208-137.89545c.368309.0172.807412-.1548 1.164242-.49378.575328-.5336.750382-1.29676.363898-1.69313-.36342-.40074-1.138285-.29404-1.704824.25274-.579715.53469-.741355 1.29354-.37794 1.69429.138341.15067.333642.22999.554624.23988z"/>
    <path d="m-53.492391-134.12659c.377089.0202.824069-.23355 1.136159-.67163.405204-.59948.405592-1.30609-.0094-1.59484-.40624-.28328-1.071875-.0186-1.482506.57101-.406315.59067-.406696 1.29752.0094 1.58079.102647.0708.220649.10803.346347.11467z"/>
    <path d="m-56.070105-130.738c.293357-.009.629913-.17096.900971-.45985.434783-.46772.518865-1.08076.188385-1.3772-.316207-.29314-.935479-.15676-1.353797.30657-.434783.46224-.514836 1.08193-.194235 1.37836.122285.10995.282658.15761.458676.15212z"/>
    <path d="m-58.874816-128.45983c.0814.008.168582.004.25742-.009.118443-.0177.242503-.0534.362729-.10999.480899-.21631.754346-.66995.588556-1.00043-.146023-.33048-.664043-.4297-1.136159-.20243-.481997.2163-.750312.66527-.594408.99575.08029.19022.277668.30407.521862.32646z"/>
    <path d="m103.0957 232.14648a112 112 0 0 0 3.40625.86914 112 112 0 0 0 11.06836 1.67188 112 112 0 0 0 11.18164.56055 112 112 0 0 0 7.92188-.28125 112 112 0 0 0 11.11523-1.34766 112 112 0 0 0 10.92188-2.45312 112 112 0 0 0 2.44922-.8125c-.59518-1.49147-1.4253-3.59487-1.54688-3.94336 0-3.64523.125-15.56292.125-30.3711 0-10.32539-3.5343-17.05966-7.5039-20.49414 24.64425-2.73988 50.5332-12.09806 50.5332-54.60742 0-12.08113-4.29052-21.95461-11.38672-29.705078 1.1491-2.789362 4.93618-14.044703-1.08789-29.289063 0 0-9.28261-2.973143-30.40625 11.345703-8.84459-2.452145-18.31728-3.682577-27.72266-3.726562-9.40538.043984-18.87308 1.274417-27.70117 3.726562-21.147475-14.318846-30.443359-11.345703-30.443359-11.345703-6.011245 15.24436-2.221377 26.499701-1.072265 29.289063-7.079711 7.750468-11.404297 17.623948-11.404297 29.705078 0 42.40672 25.84188 51.89864 50.423831 54.69531-3.16507 2.76372-6.03219 7.64765-7.02735 14.79883-6.315467 2.82787-22.336125 7.72034-32.207028-9.19726 0 0-5.849419-10.62552-16.962891-11.40626 0 0-10.799152-.1424-.757812 6.72657 0 0 7.252704 3.40101 12.287109 16.1914 0 0 6.497822 19.7554 37.287112 13.06055.02573 4.99529-.73674 16.09119-1.49024 26.33984z" transform="matrix(.5990873 0 0 -.5990873 -95.65316 -24.770925)"/>
  </g>
  <g enable-background="new" fill="#3d3846" opacity=".85" transform="matrix(5.2219061 0 0 5.2219061 -22.928976 -1231.7705)">
    <path d="m0 0c-.133-.301-.605-.391-1.035-.184-.439.197-.684.606-.542.907.13.308.602.394 1.04.188.438-.197.688-.61.537-.911" transform="matrix(.35277777 0 0 -.35277777 16.525238 269.35933)"/>
    <path d="m0 0c-.288-.267-.852-.143-1.233.279-.396.421-.469.985-.177 1.255.297.267.843.142 1.238-.279.396-.426.473-.985.172-1.255" transform="matrix(.35277777 0 0 -.35277777 17.388237 270.32189)"/>
    <path d="m0 0c-.37-.258-.976-.017-1.35.52-.37.538-.37 1.182.009 1.44.374.258.971.025 1.35-.507.369-.546.369-1.19-.009-1.453" transform="matrix(.35277777 0 0 -.35277777 18.228167 271.54867)"/>
    <path d="m0 0c-.331-.365-1.036-.267-1.552.231-.528.487-.675 1.178-.344 1.543.336.366 1.045.263 1.565-.231.524-.486.683-1.182.331-1.543" transform="matrix(.35277777 0 0 -.35277777 19.378822 272.73415)"/>
    <path d="m0 0c-.147-.473-.825-.687-1.509-.486-.683.207-1.13.76-.992 1.238.142.477.824.7 1.513.485.682-.206 1.13-.756.988-1.237" transform="matrix(.35277777 0 0 -.35277777 20.966322 273.42245)"/>
    <path d="m0 0c.017-.498-.563-.911-1.281-.92-.722-.017-1.307.387-1.315.877 0 .503.568.911 1.289.924.718.014 1.307-.387 1.307-.881" transform="matrix(.35277777 0 0 -.35277777 22.709892 273.54994)"/>
    <path d="m0 0c.086-.485-.413-.984-1.126-1.117-.701-.129-1.35.172-1.439.653-.087.498.42.997 1.121 1.126.714.124 1.353-.168 1.444-.662" transform="matrix(.35277777 0 0 -.35277777 24.332174 273.27397)"/>
  </g>
  <path d="m128.752 235.248a112 112 0 0 1 -112-112 112 112 0 0 1 .04102-1.16992 112 112 0 0 0 111.95898 111.16992 112 112 0 0 0 111.95898-110.83008 112 112 0 0 1 .041.83008 112 112 0 0 1 -112 112z" opacity=".2"/>
</svg>

<svg xmlns="http://www.w3.org/2000/svg" xmlns:xlink="http://www.w3.org/1999/xlink" style="enable-background:new" width="256" height="256" version="1.0" viewBox="0 0 256 256">
 <title id="title4162">
  Adwaita Icon Template
 </title>
 <defs>
  <linearGradient id="linearGradient950">
   <stop style="stop-color:#9a9996" id="stop946" offset="0"/>
   <stop style="stop-color:#77767b" id="stop948" offset="1"/>
  </linearGradient>
  <linearGradient id="linearGradient1001" x1="1660.857" x2="1662.99" y1="806.297" y2="812.882" gradientTransform="matrix(1.8293937,-0.81599442,0.81599442,1.8293937,-3645.9624,100.02949)" gradientUnits="userSpaceOnUse" xlink:href="#linearGradient950"/>
  <clipPath id="clipPath5154" clipPathUnits="userSpaceOnUse">
   <circle style="fill:url(#radialGradient5158)" cx="128" cy="924.362" r="109.647"/>
  </clipPath>
  <clipPath id="clipPath977" clipPathUnits="userSpaceOnUse">
   <circle style="fill:url(#radialGradient5158)" cx="128" cy="924.362" r="109.647"/>
  </clipPath>
  <clipPath id="clipPath4688" clipPathUnits="userSpaceOnUse">
   <path style="fill:url(#radialGradient4692);stroke:#a7003f;stroke-linecap:round;stroke-linejoin:round" d="m 106.42383,889.60156 c -2.2448,-0.0524 -4.09304,1.75264 -4.09375,3.99805 v 32.64453 32.64453 c -4e-5,3.07923 3.33305,5.004 6,3.46485 l 28.26953,-16.32227 28.27148,-16.32227 c 2.66559,-1.54001 2.66559,-5.38772 0,-6.92773 l -28.27148,-16.32227 -28.26953,-16.32226 c -0.58054,-0.3353 -1.23603,-0.51932 -1.90625,-0.53516 z"/>
  </clipPath>
  <clipPath id="clipPath4564" clipPathUnits="userSpaceOnUse">
   <circle style="fill:url(#radialGradient4568)" cx="128" cy="924.362" r="109.647"/>
  </clipPath>
  <clipPath id="clipPath6215" clipPathUnits="userSpaceOnUse">
   <path style="fill:url(#radialGradient6219)" d="m 105.17325,806.18572 c -3.06859,0.56361 -6.11393,1.24721 -9.129005,2.04923 -3.838255,1.06506 -7.62084,2.32142 -11.333578,3.76438 -3.712189,1.44307 -7.34989,3.07087 -10.899472,4.87732 -3.549153,1.80656 -7.005749,3.78947 -10.35684,5.94129 -3.351877,2.15253 -6.593991,4.47137 -9.714191,6.94783 -3.119992,2.47544 -6.114241,5.10535 -8.971529,7.87988 -0.367219,0.38909 -0.731819,0.78065 -1.093777,1.17464 2.60205,17.85956 16.832359,40.03752 30.863064,55.74236 -4.76734,8.84435 -7.265993,18.73329 -7.272057,28.78068 0.02104,2.87431 0.246096,5.7435 0.673482,8.58593 -20.257302,-9.18513 -43.077023,-26.53494 -52.798465,-47.36396 -0.440667,1.15171 -0.863474,2.31018 -1.268271,3.47498 -1.176789,3.80495 -2.162562,7.66637 -2.953625,11.56979 -0.79154,3.90311 -1.3874065,7.84335 -1.7853678,11.80598 -0.39733,3.96334 -0.5961891,7.94407 -0.5958321,11.92728 -4.394e-4,2.81936 0.098928,5.63785 0.2979155,8.45018 0.282275,3.97319 0.763088,7.92978 1.4406374,11.85493 0.625626,3.51826 1.408798,7.00668 2.347153,10.45473 16.778133,6.68355 43.114514,5.45001 63.748015,1.14301 6.818545,11.02763 16.987182,19.58379 29.018153,24.41667 -18.071844,12.93645 -44.490188,24.02095 -67.37308,22.03245 1.384097,1.665 2.813203,3.2921 4.285735,4.8794 2.774977,2.8571 5.691103,5.5737 8.737453,8.1395 3.046107,2.5658 6.218619,4.9777 9.505651,7.2266 3.287242,2.2488 6.684891,4.3319 10.180217,6.2413 3.495379,1.9096 7.084075,3.6433 10.752641,5.1944 3.66896,1.5509 7.413193,2.9174 11.218668,4.0942 1.438565,0.3959 2.884421,0.7648 4.336807,1.1066 14.138748,-11.1844 26.206378,-34.5828 32.780368,-54.56406 12.95816,-0.38251 25.45395,-4.90132 35.65955,-12.89544 2.15922,22.12638 -1.46693,50.5581 -14.64692,69.3832 3.06859,-0.5636 6.11393,-1.2473 9.129,-2.0493 3.83826,-1.0651 7.62084,-2.3214 11.33358,-3.7644 3.71219,-1.4431 7.34989,-3.0709 10.89947,-4.8773 3.54915,-1.8066 7.00575,-3.7895 10.35684,-5.9413 3.35188,-2.1525 6.59399,-4.4714 9.71419,-6.9478 3.11999,-2.4754 6.11424,-5.1054 8.97153,-7.8799 0.36722,-0.3891 0.73182,-0.7806 1.09378,-1.1746 -2.60204,-17.85957 -16.83236,-40.03755 -30.86307,-55.74238 4.76735,-8.84435 7.266,-18.7333 7.27207,-28.78069 -0.021,-2.8743 -0.24611,-5.74349 -0.6735,-8.58592 20.25731,9.18513 43.07704,26.53494 52.79848,47.36396 0.44067,-1.15171 0.86347,-2.31018 1.26827,-3.47499 1.17679,-3.80495 2.16256,-7.66636 2.95362,-11.56978 0.79154,-3.90311 1.38741,-7.84335 1.78537,-11.80598 0.39733,-3.96334 0.59619,-7.94408 0.59583,-11.92729 4.4e-4,-2.81936 -0.0989,-5.63784 -0.29791,-8.45017 -0.28228,-3.97319 -0.76309,-7.92978 -1.44064,-11.85493 -0.62776,-3.53416 -1.41449,-7.03823 -2.35779,-10.50154 -20.56165,-7.32804 -45.89823,-4.79548 -63.74906,-1.11372 -6.81835,-11.01918 -16.98234,-19.56874 -29.00647,-24.39915 18.07184,-12.93645 44.49019,-24.02091 67.37307,-22.03241 -1.38409,-1.66502 -2.8132,-3.2921 -4.28573,-4.87944 -2.77498,-2.85712 -5.6911,-5.57368 -8.73745,-8.13949 -3.04611,-2.56581 -6.21862,-4.97769 -9.50565,-7.22659 -3.28724,-2.24885 -6.68489,-4.3319 -10.18022,-6.24135 -3.49538,-1.90963 -7.08407,-3.64325 -10.75264,-5.19438 -3.66896,-1.55092 -7.41319,-2.91736 -11.21867,-4.09421 -1.42662,-0.39262 -2.86041,-0.75869 -4.30063,-1.09804 -14.14688,11.18369 -26.2293,34.57475 -32.8107,54.55552 -12.96018,0.38127 -25.4582,4.90015 -35.665394,12.89544 -2.15922,-22.12637 1.466931,-50.55807 14.646924,-69.38315 z"/>
  </clipPath>
  <linearGradient id="linearGradient954">
   <stop id="stop950" offset="0" style="stop-color:#faf8f6"/>
   <stop id="stop952" offset="1" style="stop-color:#f1f0e9"/>
  </linearGradient>
  <filter style="color-interpolation-filters:sRGB" id="filter11191" width="1.024" height="1.024" x="-.01" y="-.01">
   <feGaussianBlur id="feGaussianBlur11193" stdDeviation="1.12"/>
  </filter>
  <filter style="color-interpolation-filters:sRGB" id="filter11210" width="1.096" height="1.096" x="-.05" y="-.05">
   <feGaussianBlur id="feGaussianBlur11212" stdDeviation="4.48"/>
  </filter>
 </defs>
 <circle style="opacity:0.1;filter:url(#filter11210)" cx="128.752" cy="127.248" r="112"/>
 <circle style="opacity:0.1;filter:url(#filter11191)" cx="128.752" cy="125.248" r="112"/>
 <circle style="opacity:0.1" cx="128.752" cy="123.248" r="114"/>
 <rect style="fill:#d5d3cf" width="209.067" height="212.8" x="24.18" y="19.55" rx="104.533" ry="104.533"/>
 <path style="fill:#3d3846" d="M 240.752,123.248 A 112,112 0 0 1 128.75203,235.24799 112,112 0 0 1 16.751999,123.248 112,112 0 0 1 128.75203,11.247996 112,112 0 0 1 240.752,123.248 Z"/>
 <path style="opacity:0.3;fill:#ffffff" d="M 128.752,11.248007 A 112,112 0 0 0 16.752,123.248 112,112 0 0 0 16.79302,124.41792 112,112 0 0 1 128.752,13.248007 112,112 0 0 1 240.71098,124.07808 a 112,112 0 0 0 0.041,-0.83008 112,112 0 0 0 -112,-111.999993 z"/>
 <g transform="matrix(1.6692058,0,0,-1.6692058,159.66481,-41.347771)" style="fill:#ffffff;enable-background:new">
  <path style="fill:#ffffff" d="m -39.852624,-141.65497 c 0.788325,0.0154 1.434533,-0.42529 1.434533,-0.96766 0.01868,-0.54679 -0.616957,-0.99991 -1.405281,-1.00979 -0.792718,-0.0187 -1.435112,0.42617 -1.443894,0.96416 0,0.55227 0.623029,0.99902 1.414642,1.01329 z"/>
  <path style="fill:#ffffff" d="m -34.665606,-141.00673 c 0.66083,0.0224 1.209048,-0.28129 1.296461,-0.75588 0.09442,-0.5325 -0.452784,-1.0814 -1.235617,-1.22743 -0.769654,-0.14163 -1.483089,0.18916 -1.580794,0.71727 -0.09553,0.54678 0.461279,1.09516 1.230939,1.23679 0.09799,0.017 0.194607,0.026 0.289011,0.0292 z"/>
  <path style="fill:#ffffff" d="m -45.485449,-140.77739 c 0.179016,-0.002 0.367843,-0.0312 0.556964,-0.0901 0.7488,-0.22619 1.239416,-0.83036 1.083506,-1.35848 -0.161396,-0.51929 -0.904691,-0.75309 -1.655681,-0.53239 -0.749897,0.22726 -1.240872,0.83365 -1.089357,1.35848 0.116931,0.3928 0.567523,0.62797 1.104568,0.62249 z"/>
  <path style="fill:#ffffff" d="m -50.31208,-137.89545 c 0.368309,0.0172 0.807412,-0.1548 1.164242,-0.49378 0.575328,-0.5336 0.750382,-1.29676 0.363898,-1.69313 -0.36342,-0.40074 -1.138285,-0.29404 -1.704824,0.25274 -0.579715,0.53469 -0.741355,1.29354 -0.37794,1.69429 0.138341,0.15067 0.333642,0.22999 0.554624,0.23988 z"/>
  <path style="fill:#ffffff" d="m -53.492391,-134.12659 c 0.377089,0.0202 0.824069,-0.23355 1.136159,-0.67163 0.405204,-0.59948 0.405592,-1.30609 -0.0094,-1.59484 -0.40624,-0.28328 -1.071875,-0.0186 -1.482506,0.57101 -0.406315,0.59067 -0.406696,1.29752 0.0094,1.58079 0.102647,0.0708 0.220649,0.10803 0.346347,0.11467 z"/>
  <path style="fill:#ffffff" d="m -56.070105,-130.738 c 0.293357,-0.009 0.629913,-0.17096 0.900971,-0.45985 0.434783,-0.46772 0.518865,-1.08076 0.188385,-1.3772 -0.316207,-0.29314 -0.935479,-0.15676 -1.353797,0.30657 -0.434783,0.46224 -0.514836,1.08193 -0.194235,1.37836 0.122285,0.10995 0.282658,0.15761 0.458676,0.15212 z"/>
  <path style="fill:#ffffff" d="m -58.874816,-128.45983 c 0.0814,0.008 0.168582,0.004 0.25742,-0.009 0.118443,-0.0177 0.242503,-0.0534 0.362729,-0.10999 0.480899,-0.21631 0.754346,-0.66995 0.588556,-1.00043 -0.146023,-0.33048 -0.664043,-0.4297 -1.136159,-0.20243 -0.481997,0.2163 -0.750312,0.66527 -0.594408,0.99575 0.08029,0.19022 0.277668,0.30407 0.521862,0.32646 z"/>
  <path style="fill:#ffffff" d="M 103.0957 232.14648 A 112 112 0 0 0 106.50195 233.01562 A 112 112 0 0 0 117.57031 234.6875 A 112 112 0 0 0 128.75195 235.24805 A 112 112 0 0 0 136.67383 234.9668 A 112 112 0 0 0 147.78906 233.61914 A 112 112 0 0 0 158.71094 231.16602 A 112 112 0 0 0 161.16016 230.35352 C 160.56498 228.86205 159.73486 226.75865 159.61328 226.41016 C 159.61328 222.76493 159.73828 210.84724 159.73828 196.03906 C 159.73828 185.71367 156.20398 178.9794 152.23438 175.54492 C 176.87863 172.80504 202.76758 163.44686 202.76758 120.9375 C 202.76758 108.85637 198.47706 98.98289 191.38086 91.232422 C 192.52996 88.44306 196.31704 77.187719 190.29297 61.943359 C 190.29297 61.943359 181.01036 58.970216 159.88672 73.289062 C 151.04213 70.836917 141.56944 69.606485 132.16406 69.5625 C 122.75868 69.606484 113.29098 70.836917 104.46289 73.289062 C 83.315415 58.970216 74.019531 61.943359 74.019531 61.943359 C 68.008286 77.187719 71.798154 88.44306 72.947266 91.232422 C 65.867555 98.98289 61.542969 108.85637 61.542969 120.9375 C 61.542969 163.34422 87.384849 172.83614 111.9668 175.63281 C 108.80173 178.39653 105.93461 183.28046 104.93945 190.43164 C 98.623983 193.25951 82.603325 198.15198 72.732422 181.23438 C 72.732422 181.23438 66.883003 170.60886 55.769531 169.82812 C 55.769531 169.82812 44.970379 169.68572 55.011719 176.55469 C 55.011719 176.55469 62.264423 179.9557 67.298828 192.74609 C 67.298828 192.74609 73.79665 212.50149 104.58594 205.80664 C 104.61167 210.80193 103.8492 221.89783 103.0957 232.14648 z" transform="matrix(0.5990873,0,0,-0.5990873,-95.65316,-24.770925)"/>
 </g>
 <g style="opacity:0.85;fill:#3d3846;enable-background:new" transform="matrix(5.2219061,0,0,5.2219061,-22.928976,-1231.7705)">
  <g style="fill:#3d3846" transform="matrix(0.35277777,0,0,-0.35277777,16.525238,269.35933)">
   <path d="m 0,0 c -0.133,-0.301 -0.605,-0.391 -1.035,-0.184 -0.439,0.197 -0.684,0.606 -0.542,0.907 0.13,0.308 0.602,0.394 1.04,0.188 C -0.099,0.714 0.151,0.301 0,0" style="fill:#3d3846"/>
  </g>
  <g style="fill:#3d3846" transform="matrix(0.35277777,0,0,-0.35277777,17.388237,270.32189)">
   <path d="M 0,0 C -0.288,-0.267 -0.852,-0.143 -1.233,0.279 -1.629,0.7 -1.702,1.264 -1.41,1.534 -1.113,1.801 -0.567,1.676 -0.172,1.255 0.224,0.829 0.301,0.27 0,0" style="fill:#3d3846"/>
  </g>
  <g style="fill:#3d3846" transform="matrix(0.35277777,0,0,-0.35277777,18.228167,271.54867)">
   <path d="M 0,0 C -0.37,-0.258 -0.976,-0.017 -1.35,0.52 -1.72,1.058 -1.72,1.702 -1.341,1.96 -0.967,2.218 -0.37,1.985 0.009,1.453 0.378,0.907 0.378,0.263 0,0" style="fill:#3d3846"/>
  </g>
  <g style="fill:#3d3846" transform="matrix(0.35277777,0,0,-0.35277777,19.378822,272.73415)">
   <path d="M 0,0 C -0.331,-0.365 -1.036,-0.267 -1.552,0.231 -2.08,0.718 -2.227,1.409 -1.896,1.774 -1.56,2.14 -0.851,2.037 -0.331,1.543 0.193,1.057 0.352,0.361 0,0" style="fill:#3d3846"/>
  </g>
  <g style="fill:#3d3846" transform="matrix(0.35277777,0,0,-0.35277777,20.966322,273.42245)">
   <path d="m 0,0 c -0.147,-0.473 -0.825,-0.687 -1.509,-0.486 -0.683,0.207 -1.13,0.76 -0.992,1.238 0.142,0.477 0.824,0.7 1.513,0.485 C -0.306,1.031 0.142,0.481 0,0" style="fill:#3d3846"/>
  </g>
  <g style="fill:#3d3846" transform="matrix(0.35277777,0,0,-0.35277777,22.709892,273.54994)">
   <path d="m 0,0 c 0.017,-0.498 -0.563,-0.911 -1.281,-0.92 -0.722,-0.017 -1.307,0.387 -1.315,0.877 0,0.503 0.568,0.911 1.289,0.924 C -0.589,0.895 0,0.494 0,0" style="fill:#3d3846"/>
  </g>
  <g style="fill:#3d3846" transform="matrix(0.35277777,0,0,-0.35277777,24.332174,273.27397)">
   <path d="m 0,0 c 0.086,-0.485 -0.413,-0.984 -1.126,-1.117 -0.701,-0.129 -1.35,0.172 -1.439,0.653 -0.087,0.498 0.42,0.997 1.121,1.126 C -0.73,0.786 -0.091,0.494 0,0" style="fill:#3d3846"/>
  </g>
 </g>
 <path style="opacity:0.2" d="m 128.752,235.248 a 112,112 0 0 1 -112,-112 112,112 0 0 1 0.04102,-1.16992 A 112,112 0 0 0 128.752,233.248 112,112 0 0 0 240.71098,122.41792 a 112,112 0 0 1 0.041,0.83008 112,112 0 0 1 -112,112 z"/>
</svg>
